Numix-Circle/48x48/apps/logisim-icon-128.svg

<?xml version="1.0" encoding="UTF-8" standalone="no"?>
<svg
   xmlns:dc="http://purl.org/dc/elements/1.1/"
   xmlns:cc="http://creativecommons.org/ns#"
   xmlns:rdf="http://www.w3.org/1999/02/22-rdf-syntax-ns#"
   xmlns:svg="http://www.w3.org/2000/svg"
   xmlns="http://www.w3.org/2000/svg"
   xmlns:xlink="http://www.w3.org/1999/xlink"
   xmlns:sodipodi="http://sodipodi.sourceforge.net/DTD/sodipodi-0.dtd"
   xmlns:inkscape="http://www.inkscape.org/namespaces/inkscape"
   viewBox="0 0 48 48"
   id="svg2"
   version="1.1"
   inkscape:version="0.91 r13725"
   width="100%"
   height="100%"
   sodipodi:docname="logisim-icon-128.svg">
  <metadata
     id="metadata85">
    <rdf:RDF>
      <cc:Work
         rdf:about="">
        <dc:format>image/svg+xml</dc:format>
        <dc:type
           rdf:resource="http://purl.org/dc/dcmitype/StillImage" />
        <dc:title />
      </cc:Work>
    </rdf:RDF>
  </metadata>
  <sodipodi:namedview
     pagecolor="#ffffff"
     bordercolor="#666666"
     borderopacity="1"
     objecttolerance="10"
     gridtolerance="10"
     guidetolerance="10"
     inkscape:pageopacity="0"
     inkscape:pageshadow="2"
     inkscape:window-width="1366"
     inkscape:window-height="713"
     id="namedview83"
     showgrid="false"
     inkscape:zoom="1"
     inkscape:cx="24.558318"
     inkscape:cy="24.0205"
     inkscape:window-x="0"
     inkscape:window-y="28"
     inkscape:window-maximized="1"
     inkscape:current-layer="svg2"
     showguides="true"
     inkscape:guide-bbox="true">
    <inkscape:grid
       type="xygrid"
       id="grid3081" />
  </sodipodi:namedview>
  <defs
     id="defs4">
    <linearGradient
       id="linearGradient3905">
      <stop
         style="stop-color:#cacaca;stop-opacity:1;"
         offset="0"
         id="stop3907" />
      <stop
         style="stop-color:#bbbbbb;stop-opacity:1;"
         offset="1"
         id="stop3909" />
    </linearGradient>
    <linearGradient
       id="linearGradient3991">
      <stop
         style="stop-color:#f8fadc;stop-opacity:1;"
         offset="0"
         id="stop3993" />
      <stop
         style="stop-color:#f4f7cb;stop-opacity:1;"
         offset="1"
         id="stop3995" />
    </linearGradient>
    <clipPath
       id="clipPath-092979315">
      <g
         transform="translate(0,-1004.3622)"
         id="g12">
        <path
           d="m -24 13 c 0 1.105 -0.672 2 -1.5 2 -0.828 0 -1.5 -0.895 -1.5 -2 0 -1.105 0.672 -2 1.5 -2 0.828 0 1.5 0.895 1.5 2 z"
           transform="matrix(15.333333,0,0,11.5,414.99999,878.8622)"
           fill="#1890d0"
           id="path14" />
      </g>
    </clipPath>
    <clipPath
       id="clipPath-102490060">
      <g
         transform="translate(0,-1004.3622)"
         id="g17">
        <path
           d="m -24 13 c 0 1.105 -0.672 2 -1.5 2 -0.828 0 -1.5 -0.895 -1.5 -2 0 -1.105 0.672 -2 1.5 -2 0.828 0 1.5 0.895 1.5 2 z"
           transform="matrix(15.333333,0,0,11.5,414.99999,878.8622)"
           fill="#1890d0"
           id="path19" />
      </g>
    </clipPath>
    <linearGradient
       inkscape:collect="always"
       xlink:href="#linearGradient3991"
       id="linearGradient3997"
       x1="24"
       y1="1"
       x2="24"
       y2="47"
       gradientUnits="userSpaceOnUse" />
    <radialGradient
       inkscape:collect="always"
       xlink:href="#linearGradient3905"
       id="radialGradient3911"
       cx="27"
       cy="24"
       fx="27"
       fy="24"
       r="11"
       gradientTransform="matrix(1,0,0,1.0909091,0,-2.1818182)"
       gradientUnits="userSpaceOnUse" />
  </defs>
  <g
     id="g21">
    <path
       d="m 36.31 5 c 5.859 4.062 9.688 10.831 9.688 18.5 c 0 12.426 -10.07 22.5 -22.5 22.5 c -7.669 0 -14.438 -3.828 -18.5 -9.688 c 1.037 1.822 2.306 3.499 3.781 4.969 c 4.085 3.712 9.514 5.969 15.469 5.969 c 12.703 0 23 -10.298 23 -23 c 0 -5.954 -2.256 -11.384 -5.969 -15.469 c -1.469 -1.475 -3.147 -2.744 -4.969 -3.781 z m 4.969 3.781 c 3.854 4.113 6.219 9.637 6.219 15.719 c 0 12.703 -10.297 23 -23 23 c -6.081 0 -11.606 -2.364 -15.719 -6.219 c 4.16 4.144 9.883 6.719 16.219 6.719 c 12.703 0 23 -10.298 23 -23 c 0 -6.335 -2.575 -12.06 -6.719 -16.219 z"
       opacity="0.05"
       id="path23" />
    <path
       d="m 41.28 8.781 c 3.712 4.085 5.969 9.514 5.969 15.469 c 0 12.703 -10.297 23 -23 23 c -5.954 0 -11.384 -2.256 -15.469 -5.969 c 4.113 3.854 9.637 6.219 15.719 6.219 c 12.703 0 23 -10.298 23 -23 c 0 -6.081 -2.364 -11.606 -6.219 -15.719 z"
       opacity="0.1"
       id="path25" />
    <path
       d="m 31.25 2.375 c 8.615 3.154 14.75 11.417 14.75 21.13 c 0 12.426 -10.07 22.5 -22.5 22.5 c -9.708 0 -17.971 -6.135 -21.12 -14.75 a 23 23 0 0 0 44.875 -7 a 23 23 0 0 0 -16 -21.875 z"
       opacity="0.2"
       id="path27" />
  </g>
  <g
     id="g29">
    <path
       d="m 24 1 c 12.703 0 23 10.297 23 23 c 0 12.703 -10.297 23 -23 23 -12.703 0 -23 -10.297 -23 -23 0 -12.703 10.297 -23 23 -23 z"
       id="path31"
       fill-opacity="1"
       fill="url(#linearGradient3764)"
       style="fill:url(#linearGradient3997);fill-opacity:1.0" />
  </g>
  <g
     id="g33" />
  <g
     id="g35">
    <g
       clip-path="url(#clipPath-092979315)"
       id="g37">
      <g
         transform="translate(1,1)"
         id="g39">
        <g
           opacity="0.1"
           id="g41">
          <!-- color: #efc07d -->
          <g
             id="g43">
            <path
               style="fill:#000000;fill-opacity:1;fill-rule:nonzero;stroke:none"
               d="M 17 13 C 17.28705 14.043814 17.527869 15.039936 17.75 16 L 0 16 L 0 20 L 18.53125 20 C 19.031769 23.440719 19.031769 26.559281 18.53125 30 L 0 30 L 0 34 L 17.75 34 C 17.527869 34.960064 17.28705 35.956186 17 37 C 28.296778 37 34.947596 30.410266 37.625 27 L 48 27 L 48 23 L 37.625 23 C 34.947596 19.589734 28.296778 13 17 13 z "
               transform="translate(-1,-1)"
               id="path57" />
          </g>
        </g>
      </g>
    </g>
  </g>
  <g
     id="g59">
    <g
       clip-path="url(#clipPath-102490060)"
       id="g61">
      <!-- color: #efc07d -->
      <g
         id="g63">
        <g
           id="g3929">
          <g
             id="g3887">
            <path
               d="m 0,15 22,0 0,4 -22,0"
               id="path77"
               inkscape:connector-curvature="0"
               style="fill:#ff3f3f;fill-opacity:1;fill-rule:nonzero;stroke:none"
               sodipodi:nodetypes="cccc" />
            <path
               sodipodi:nodetypes="cccc"
               style="fill:#53f551;fill-opacity:1;fill-rule:nonzero;stroke:none"
               inkscape:connector-curvature="0"
               id="path3104"
               d="m 0,29 22,0 0,4 -22,0" />
            <path
               sodipodi:nodetypes="cccc"
               style="fill:#53f551;fill-opacity:1;fill-rule:nonzero;stroke:none"
               inkscape:connector-curvature="0"
               id="path3108"
               d="m 28,22 20,0 0,4 -20,0" />
          </g>
        </g>
      </g>
    </g>
  </g>
  <g
     id="g79">
    <path
       d="m 40.03 7.531 c 3.712 4.084 5.969 9.514 5.969 15.469 0 12.703 -10.297 23 -23 23 c -5.954 0 -11.384 -2.256 -15.469 -5.969 4.178 4.291 10.01 6.969 16.469 6.969 c 12.703 0 23 -10.298 23 -23 0 -6.462 -2.677 -12.291 -6.969 -16.469 z"
       opacity="0.1"
       id="path81" />
  </g>
  <path
     style="fill:url(#radialGradient3911);fill-opacity:1;fill-rule:nonzero;stroke:none"
     inkscape:transform-center-x="-3.3204467"
     inkscape:transform-center-y="-0.17128121"
     d="m 16,36 c 2.53847,-9.230769 2.53847,-14.769231 0,-24 15.230765,0 22,12 22,12 0,0 -6.769235,12 -22,12 z"
     id="path3035"
     inkscape:connector-curvature="0"
     sodipodi:nodetypes="cccc" />
</svg>

<svg xmlns="http://www.w3.org/2000/svg" viewBox="0 0 48 48"><defs><clipPath id="clipPath-092979315"><g transform="translate(0,-1004.3622)"><path d="m -24 13 c 0 1.105 -0.672 2 -1.5 2 -0.828 0 -1.5 -0.895 -1.5 -2 0 -1.105 0.672 -2 1.5 -2 0.828 0 1.5 0.895 1.5 2 z" transform="matrix(15.333333,0,0,11.5,414.99999,878.8622)" fill="#1890d0"/></g></clipPath><clipPath id="clipPath-102490060"><g transform="translate(0,-1004.3622)"><path d="m -24 13 c 0 1.105 -0.672 2 -1.5 2 -0.828 0 -1.5 -0.895 -1.5 -2 0 -1.105 0.672 -2 1.5 -2 0.828 0 1.5 0.895 1.5 2 z" transform="matrix(15.333333,0,0,11.5,414.99999,878.8622)" fill="#1890d0"/></g></clipPath><linearGradient id="linearGradient3997" y1="1" x2="0" y2="47" gradientUnits="userSpaceOnUse"><stop stop-color="#f8fadc" stop-opacity="1"/><stop offset="1" stop-color="#f4f7cb" stop-opacity="1"/></linearGradient><radialGradient id="radialGradient3911" cx="27" cy="24" r="11" gradientTransform="matrix(1,0,0,1.0909091,0,-2.1818182)" gradientUnits="userSpaceOnUse"><stop stop-color="#cacaca" stop-opacity="1"/><stop offset="1" stop-color="#bbb" stop-opacity="1"/></radialGradient></defs><g><path d="m 36.31 5 c 5.859 4.062 9.688 10.831 9.688 18.5 c 0 12.426 -10.07 22.5 -22.5 22.5 c -7.669 0 -14.438 -3.828 -18.5 -9.688 c 1.037 1.822 2.306 3.499 3.781 4.969 c 4.085 3.712 9.514 5.969 15.469 5.969 c 12.703 0 23 -10.298 23 -23 c 0 -5.954 -2.256 -11.384 -5.969 -15.469 c -1.469 -1.475 -3.147 -2.744 -4.969 -3.781 z m 4.969 3.781 c 3.854 4.113 6.219 9.637 6.219 15.719 c 0 12.703 -10.297 23 -23 23 c -6.081 0 -11.606 -2.364 -15.719 -6.219 c 4.16 4.144 9.883 6.719 16.219 6.719 c 12.703 0 23 -10.298 23 -23 c 0 -6.335 -2.575 -12.06 -6.719 -16.219 z" opacity="0.05"/><path d="m 41.28 8.781 c 3.712 4.085 5.969 9.514 5.969 15.469 c 0 12.703 -10.297 23 -23 23 c -5.954 0 -11.384 -2.256 -15.469 -5.969 c 4.113 3.854 9.637 6.219 15.719 6.219 c 12.703 0 23 -10.298 23 -23 c 0 -6.081 -2.364 -11.606 -6.219 -15.719 z" opacity="0.1"/><path d="m 31.25 2.375 c 8.615 3.154 14.75 11.417 14.75 21.13 c 0 12.426 -10.07 22.5 -22.5 22.5 c -9.708 0 -17.971 -6.135 -21.12 -14.75 a 23 23 0 0 0 44.875 -7 a 23 23 0 0 0 -16 -21.875 z" opacity="0.2"/></g><g><path d="m 24 1 c 12.703 0 23 10.297 23 23 c 0 12.703 -10.297 23 -23 23 -12.703 0 -23 -10.297 -23 -23 0 -12.703 10.297 -23 23 -23 z" fill-opacity="1" fill="url(#linearGradient3997)"/></g><g><g clip-path="url(#clipPath-092979315)"><g transform="translate(1,1)"><g opacity="0.1"><!-- color: #efc07d --><g><path d="m 17 13 c 0.287 1.044 0.528 2.04 0.75 3 l -17.75 0 l 0 4 l 18.531 0 c 0.501 3.441 0.501 6.559 0 10 l -18.531 0 l 0 4 l 17.75 0 c -0.222 0.96 -0.463 1.956 -0.75 3 c 11.297 0 17.948 -6.59 20.625 -10 l 10.375 0 l 0 -4 l -10.375 0 c -2.677 -3.41 -9.328 -10 -20.625 -10 z" transform="translate(-1,-1)" fill="#000" fill-rule="nonzero" stroke="none" fill-opacity="1"/></g></g></g></g></g><g><g clip-path="url(#clipPath-102490060)"><!-- color: #efc07d --><g><g><g><path d="m 0 15 22 0 0 4 -22 0" fill="#ff3f3f" fill-rule="nonzero" stroke="none" fill-opacity="1"/><path d="m 0 29 22 0 0 4 -22 0" fill="#53f551" fill-rule="nonzero" stroke="none" fill-opacity="1"/><path d="m 28 22 20 0 0 4 -20 0" fill="#53f551" fill-rule="nonzero" stroke="none" fill-opacity="1"/></g></g></g></g></g><g><path d="m 40.03 7.531 c 3.712 4.084 5.969 9.514 5.969 15.469 0 12.703 -10.297 23 -23 23 c -5.954 0 -11.384 -2.256 -15.469 -5.969 4.178 4.291 10.01 6.969 16.469 6.969 c 12.703 0 23 -10.298 23 -23 0 -6.462 -2.677 -12.291 -6.969 -16.469 z" opacity="0.1"/></g><path d="m 16 36 c 2.538 -9.231 2.538 -14.769 0 -24 15.231 0 22 12 22 12 0 0 -6.769 12 -22 12 z" fill="url(#radialGradient3911)" fill-rule="nonzero" stroke="none" fill-opacity="1"/></svg>
